assets/livekit/mono.svg

<svg viewBox="0 0 24 24" xmlns="http://www.w3.org/2000/svg"><path d="m0 0v24h14.4v-4.799h4.8v4.799h4.8v-4.8h-4.799v-4.8h-4.8v4.8h-9.601v-19.2zm14.4 14.4v-4.798h4.801v-4.802h4.799v-4.8h-4.8v4.8h-4.8v4.8h-4.8v4.8z"/></svg>

<svg xmlns="http://www.w3.org/2000/svg" viewBox="0 0 24 24"><path d="M0 0v24h14.4v-4.799h4.8V24H24v-4.8h-4.799v-4.8h-4.8v4.8H4.8V0zm14.4 14.4V9.602h4.801V4.8H24V0h-4.8v4.8h-4.8v4.8H9.6v4.8z"/></svg>
